X: 13093
T: Fios Feasa Fé Gheasa
R: jig
M: 6/8
K: Aminor
|:EAB c3|BAG BAG|EAB c2B|BAA A2z|
[1 EAB c3|BAG BAG|EAB c2B|BAA A2z:|
[2 EAB c2B|BAG dBG|EAB c2B|BAA A2z||
aee aee|BcA GEE|aee ae^c|ea^g a2z|
aee aee|BcA GEE|EAB c2B|BAA A2z||
aee aee|BcA GEE|aee ae^c|ea^g a2b|
c'2b a=ge|f2e dBG|EAB c2B|BAA A2z||

